humanity-icon-theme/Humanity/actions/64/process-stop.svg

<?xml version="1.0" encoding="UTF-8" standalone="no"?>
<!-- Created with Inkscape (http://www.inkscape.org/) -->

<svg
   xmlns:dc="http://purl.org/dc/elements/1.1/"
   xmlns:cc="http://creativecommons.org/ns#"
   xmlns:rdf="http://www.w3.org/1999/02/22-rdf-syntax-ns#"
   xmlns:svg="http://www.w3.org/2000/svg"
   xmlns="http://www.w3.org/2000/svg"
   xmlns:xlink="http://www.w3.org/1999/xlink"
   xmlns:sodipodi="http://sodipodi.sourceforge.net/DTD/sodipodi-0.dtd"
   xmlns:inkscape="http://www.inkscape.org/namespaces/inkscape"
   width="64px"
   height="64px"
   id="svg2992"
   version="1.1"
   inkscape:version="0.47 r22583"
   sodipodi:docname="process-stop.svg">
  <defs
     id="defs2994">
    <linearGradient
       inkscape:collect="always"
       xlink:href="#linearGradient4873-2"
       id="linearGradient2907"
       gradientUnits="userSpaceOnUse"
       gradientTransform="matrix(2.8014404,0,0,2.8013767,-142.25072,43.835172)"
       x1="63.397362"
       y1="-12.489107"
       x2="63.397362"
       y2="5.4675598" />
    <linearGradient
       id="linearGradient4873-2">
      <stop
         id="stop4875-7"
         style="stop-color:#ffffff;stop-opacity:1"
         offset="0" />
      <stop
         id="stop4877-6"
         style="stop-color:#ffffff;stop-opacity:0"
         offset="1" />
    </linearGradient>
    <radialGradient
       inkscape:collect="always"
       xlink:href="#linearGradient3242"
       id="radialGradient2910"
       gradientUnits="userSpaceOnUse"
       gradientTransform="matrix(0,2.9913581,-3.9485396,0,47.754682,-64.903143)"
       cx="23.895569"
       cy="3.9900031"
       fx="23.895569"
       fy="3.9900031"
       r="20.397499" />
    <linearGradient
       id="linearGradient3242">
      <stop
         id="stop3244"
         style="stop-color:#f8b17e;stop-opacity:1"
         offset="0" />
      <stop
         id="stop3246"
         style="stop-color:#e35d4f;stop-opacity:1"
         offset="0.26238" />
      <stop
         id="stop3248"
         style="stop-color:#c6262e;stop-opacity:1"
         offset="0.66093999" />
      <stop
         id="stop3250"
         style="stop-color:#690b54;stop-opacity:1"
         offset="1" />
    </linearGradient>
    <linearGradient
       inkscape:collect="always"
       xlink:href="#linearGradient2490"
       id="linearGradient2912"
       gradientUnits="userSpaceOnUse"
       gradientTransform="matrix(1.2533672,0,0,1.2533674,1.919184,3.919169)"
       x1="18.379412"
       y1="44.980297"
       x2="18.379412"
       y2="3.0816143" />
    <linearGradient
       id="linearGradient2490">
      <stop
         id="stop2492"
         style="stop-color:#791235;stop-opacity:1"
         offset="0" />
      <stop
         id="stop2494"
         style="stop-color:#dd3b27;stop-opacity:1"
         offset="1" />
    </linearGradient>
    <linearGradient
       id="linearGradient8838-1">
      <stop
         id="stop8840-3"
         style="stop-color:#000000;stop-opacity:1"
         offset="0" />
      <stop
         id="stop8842-2"
         style="stop-color:#000000;stop-opacity:0"
         offset="1" />
    </linearGradient>
    <radialGradient
       r="10.625"
       fy="4.625"
       fx="62.625"
       cy="4.625"
       cx="62.625"
       gradientTransform="matrix(2.9176471,0,0,0.988234,-150.71765,48.92941)"
       gradientUnits="userSpaceOnUse"
       id="radialGradient2990"
       xlink:href="#linearGradient8838-1"
       inkscape:collect="always" />
  </defs>
  <sodipodi:namedview
     id="base"
     pagecolor="#ffffff"
     bordercolor="#666666"
     borderopacity="1.0"
     inkscape:pageopacity="0.0"
     inkscape:pageshadow="2"
     inkscape:zoom="5.5"
     inkscape:cx="32"
     inkscape:cy="32"
     inkscape:current-layer="layer1"
     showgrid="true"
     inkscape:document-units="px"
     inkscape:grid-bbox="true"
     inkscape:window-width="603"
     inkscape:window-height="479"
     inkscape:window-x="417"
     inkscape:window-y="169"
     inkscape:window-maximized="0" />
  <metadata
     id="metadata2997">
    <rdf:RDF>
      <cc:Work
         rdf:about="">
        <dc:format>image/svg+xml</dc:format>
        <dc:type
           rdf:resource="http://purl.org/dc/dcmitype/StillImage" />
        <dc:title></dc:title>
      </cc:Work>
    </rdf:RDF>
  </metadata>
  <g
     id="layer1"
     inkscape:label="Layer 1"
     inkscape:groupmode="layer">
    <path
       style="opacity:0.3;fill:url(#radialGradient2990);fill-opacity:1;fill-rule:evenodd;stroke:none;stroke-width:0.99999988;marker:none;visibility:visible;display:inline;overflow:visible"
       id="path8836-1"
       d="m 63,53.499998 c 0,5.79899 -13.879175,10.5 -31,10.5 -17.120825,0 -31,-4.70101 -31,-10.5 0,-5.79899 13.879175,-10.5 31,-10.5 17.120825,0 31,4.70101 31,10.5 l 0,0 z" />
    <path
       style="fill:url(#radialGradient2910);fill-opacity:1;stroke:url(#linearGradient2912);stroke-width:1;stroke-linecap:round;stroke-linejoin:round;stroke-miterlimit:4;stroke-opacity:1;stroke-dasharray:none;stroke-dashoffset:0"
       id="path2555-5"
       d="m 32.000001,8.501793 c -14.069021,0 -25.4981918,11.429168 -25.4981918,25.49819 0,14.069021 11.4291708,25.498194 25.4981918,25.49819 14.069016,0 25.4982,-11.429169 25.498187,-25.49819 0,-14.069022 -11.429171,-25.49819 -25.498187,-25.49819 z" />
    <path
       style="opacity:0.4;fill:none;stroke:url(#linearGradient2907);stroke-width:0.99999994;stroke-miterlimit:4;stroke-opacity:1;stroke-dasharray:none"
       id="path8655-9"
       d="m 56.499998,33.999131 c 0,13.531412 -10.96983,24.500867 -24.499689,24.500867 -13.531098,0 -24.5003092,-10.969579 -24.5003092,-24.500867 0,-13.530787 10.9692112,-24.4991303 24.5003092,-24.4991303 13.529859,0 24.499689,10.9683433 24.499689,24.4991303 l 0,0 z" />
    <path
       d="m 23.787375,21.000002 -3.787376,3.787374 7.813954,7.774087 c 0.240054,0.24308 0.240054,0.633996 0,0.877075 L 19.999999,41.212625 23.787375,45 31.561461,37.225914 c 0.243081,-0.240055 0.633995,-0.240055 0.877076,0 L 40.212623,45 43.999999,41.212625 36.225912,33.438538 c -0.240055,-0.243079 -0.240055,-0.633995 0,-0.877075 l 7.774087,-7.774087 -3.787376,-3.787374 -7.774086,7.774085 c -0.243081,0.240057 -0.633995,0.240057 -0.877076,0 l -7.774086,-7.774085 z"
       id="path3256-1"
       style="fill:#a8252e;fill-opacity:1;fill-rule:evenodd;stroke:none" />
    <path
       d="m 23.787375,22.000002 -3.787376,3.787374 7.813954,7.774087 c 0.240054,0.24308 0.240054,0.633996 0,0.877075 L 19.999999,42.212625 23.787375,46 31.561461,38.225914 c 0.243081,-0.240055 0.633995,-0.240055 0.877076,0 L 40.212623,46 43.999999,42.212625 36.225912,34.438538 c -0.240055,-0.243079 -0.240055,-0.633995 0,-0.877075 l 7.774087,-7.774087 -3.787376,-3.787374 -7.774086,7.774085 c -0.243081,0.240057 -0.633995,0.240057 -0.877076,0 l -7.774086,-7.774085 z"
       id="path3256"
       style="fill:#ffffff;fill-opacity:1;fill-rule:evenodd;stroke:none" />
  </g>
</svg>

<?xml version="1.0" encoding="UTF-8" standalone="no"?>
<!-- Created with Inkscape (http://www.inkscape.org/) -->
<svg id="svg2992" xmlns:rdf="http://www.w3.org/1999/02/22-rdf-syntax-ns#" xmlns="http://www.w3.org/2000/svg" height="64px" width="64px" version="1.1" xmlns:cc="http://creativecommons.org/ns#" xmlns:xlink="http://www.w3.org/1999/xlink" xmlns:dc="http://purl.org/dc/elements/1.1/">
 <defs id="defs2994">
  <linearGradient id="linearGradient2907" y2="5.4676" gradientUnits="userSpaceOnUse" x2="63.397" gradientTransform="matrix(2.8014 0 0 2.8014 -142.25 43.835)" y1="-12.489" x1="63.397">
   <stop id="stop4875-7" style="stop-color:#fff" offset="0"/>
   <stop id="stop4877-6" style="stop-color:#fff;stop-opacity:0" offset="1"/>
  </linearGradient>
  <radialGradient id="radialGradient2910" gradientUnits="userSpaceOnUse" cy="3.99" cx="23.896" gradientTransform="matrix(0 2.9914 -3.9485 0 47.755 -64.903)" r="20.397">
   <stop id="stop3244" style="stop-color:#f8b17e" offset="0"/>
   <stop id="stop3246" style="stop-color:#e35d4f" offset=".26238"/>
   <stop id="stop3248" style="stop-color:#c6262e" offset=".66094"/>
   <stop id="stop3250" style="stop-color:#690b54" offset="1"/>
  </radialGradient>
  <linearGradient id="linearGradient2912" y2="3.0816" gradientUnits="userSpaceOnUse" x2="18.379" gradientTransform="matrix(1.2534 0 0 1.2534 1.9192 3.9192)" y1="44.98" x1="18.379">
   <stop id="stop2492" style="stop-color:#791235" offset="0"/>
   <stop id="stop2494" style="stop-color:#dd3b27" offset="1"/>
  </linearGradient>
  <radialGradient id="radialGradient2990" gradientUnits="userSpaceOnUse" cx="62.625" cy="4.625" r="10.625" gradientTransform="matrix(2.9176 0 0 .98823 -150.72 48.929)">
   <stop id="stop8840-3" offset="0"/>
   <stop id="stop8842-2" style="stop-opacity:0" offset="1"/>
  </radialGradient>
 </defs>
 <metadata id="metadata2997">
  <rdf:RDF>
   <cc:Work rdf:about="">
    <dc:format>image/svg+xml</dc:format>
    <dc:type rdf:resource="http://purl.org/dc/dcmitype/StillImage"/>
    <dc:title/>
   </cc:Work>
  </rdf:RDF>
 </metadata>
 <g id="layer1">
  <path id="path8836-1" style="opacity:.3;fill-rule:evenodd;fill:url(#radialGradient2990)" d="m63 53.5c0 5.799-13.879 10.5-31 10.5s-31-4.701-31-10.5 13.879-10.5 31-10.5 31 4.701 31 10.5z"/>
  <path id="path2555-5" style="stroke-linejoin:round;stroke:url(#linearGradient2912);stroke-linecap:round;fill:url(#radialGradient2910)" d="m32 8.5018c-14.069 0-25.498 11.429-25.498 25.498s11.429 25.498 25.498 25.498 25.498-11.429 25.498-25.498-11.429-25.498-25.498-25.498z"/>
  <path id="path8655-9" style="opacity:.4;stroke:url(#linearGradient2907);fill:none" d="m56.5 33.999c0 13.531-10.97 24.501-24.5 24.501-13.531 0-24.5-10.97-24.5-24.501s10.969-24.499 24.5-24.499c13.53 0 24.5 10.968 24.5 24.499z"/>
  <path id="path3256-1" style="fill:#a8252e;fill-rule:evenodd" d="m23.787 21-3.7874 3.7874 7.814 7.7741c0.24005 0.24308 0.24005 0.634 0 0.87708l-7.814 7.775 3.787 3.787 7.774-7.774c0.24308-0.24006 0.634-0.24006 0.87708 0l7.775 7.774 3.787-3.787-7.774-7.774c-0.24006-0.24308-0.24006-0.634 0-0.87708l7.7741-7.7741-3.7874-3.7874-7.7741 7.7741c-0.24308 0.24006-0.634 0.24006-0.87708 0l-7.7741-7.7741z"/>
  <path id="path3256" style="fill:#fff;fill-rule:evenodd" d="m23.787 22-3.7874 3.7874 7.814 7.7741c0.24005 0.24308 0.24005 0.634 0 0.87708l-7.814 7.775 3.787 3.787 7.774-7.774c0.24308-0.24006 0.634-0.24006 0.87708 0l7.775 7.774 3.787-3.787-7.774-7.774c-0.24006-0.24308-0.24006-0.634 0-0.87708l7.7741-7.7741-3.7874-3.7874-7.7741 7.7741c-0.24308 0.24006-0.634 0.24006-0.87708 0l-7.7741-7.7741z"/>
 </g>
</svg>
